X:16339
T:Tay In The Bog
R:Jig
C:Seamus Quinn
S:(Sharon Shannon)
H:
N:See also Dog Big and Dog Little/Seamus Quinn
D:Galway Arts Festival Concert
Z:Adrian Scahill
M:6/8
L:1/8
K:D
A,DD DED|FAA A2B|AFB AFD|B,EE EDB,|\
A,DD DED|FAA A2B|AFB AFD|B,EC D3:||\
ABc dAF|B3 AFD|D2d dAF|EBB B2F|\
ABc dAF|B3 AFE|D2F AFD|B,EC D3:||


